X: 232
M: 6/4
L: 1/4
K: Gm
d |\
g>ab a>bg | a3 d3 | c>BA A2G | d3- d2 :|\
|: d |\
d>ed d2f | f>gf b2B | B>cB B2d | d>ed g>GA |
c>fe d>gf | =e>ag ^f>ga | d>cB A2G | G3 G2 :|

